_site/images/contact/location.svg

<svg fill="none" height="24" viewBox="0 0 17 24" width="17" xmlns="http://www.w3.org/2000/svg"><path clip-rule="evenodd" d="m0 8.4375c0-4.65244 3.78506-8.4375 8.4375-8.4375 4.6524 0 8.4375 3.78506 8.4375 8.4375 0 1.52527-.4115 3.0201-1.1901 4.3228l-6.52702 10.8979c-.12596.2104-.35246.3399-.59766.3418h-.00558c-.24309 0-.46912-.1256-.59742-.3324l-6.69774-10.7933c-.824058-1.3309-1.25948-2.8649-1.25948-4.4368zm8.544 13.5087 5.9341-9.9079c.6479-1.0842.9953-2.3295.9953-3.6008 0-3.87703-3.1589-7.04063-7.0359-7.04063-3.87703 0-7.04062 3.1636-7.04062 7.04063 0 1.31016.3719 2.5882 1.05782 3.6959zm-4.32525-13.5087c0-2.32622 1.89253-4.21875 4.21875-4.21875 2.3262 0 4.2187 1.89253 4.2187 4.21875 0 2.286-1.8326 4.2187-4.2187 4.2187-2.35702 0-4.21875-1.9073-4.21875-4.2187zm1.39688 0c0 1.5547 1.26295 2.8219 2.82187 2.8219 1.5836 0 2.8172-1.28988 2.8172-2.8219 0-1.55081-1.26639-2.82187-2.8172-2.82187s-2.82187 1.27106-2.82187 2.82187z" fill="#ffc634" fill-rule="evenodd"/></svg>

<svg width="17" height="24" viewBox="0 0 17 24" fill="none" xmlns="http://www.w3.org/2000/svg">
<path fill-rule="evenodd" clip-rule="evenodd" d="M0 8.4375C0 3.78506 3.78506 0 8.4375 0C13.0899 0 16.875 3.78506 16.875 8.4375C16.875 9.96277 16.4635 11.4576 15.6849 12.7603L9.15788 23.6582C9.03192 23.8686 8.80542 23.9981 8.56022 24H8.55464C8.31155 24 8.08552 23.8744 7.95722 23.6676L1.25948 12.8743C0.435422 11.5434 0 10.0094 0 8.4375ZM8.544 21.9462L14.4781 12.0383C15.126 10.9541 15.4734 9.7088 15.4734 8.4375C15.4734 4.56047 12.3145 1.39687 8.4375 1.39687C4.56047 1.39687 1.39688 4.56047 1.39688 8.4375C1.39688 9.74766 1.76878 11.0257 2.4547 12.1334L8.544 21.9462ZM4.21875 8.4375C4.21875 6.11128 6.11128 4.21875 8.4375 4.21875C10.7637 4.21875 12.6562 6.11128 12.6562 8.4375C12.6562 10.7235 10.8236 12.6562 8.4375 12.6562C6.08048 12.6562 4.21875 10.7489 4.21875 8.4375ZM5.61563 8.4375C5.61563 9.9922 6.87858 11.2594 8.4375 11.2594C10.0211 11.2594 11.2547 9.96952 11.2547 8.4375C11.2547 6.88669 9.98831 5.61563 8.4375 5.61563C6.88669 5.61563 5.61563 6.88669 5.61563 8.4375Z" fill="#FFC634"/>
</svg>
